; generated by Slic3r 1.1.7 on 2014-11-04 at 11:22:43

; perimeters extrusion width = 0.40mm
; infill extrusion width = 0.42mm
; solid infill extrusion width = 0.42mm
; top infill extrusion width = 0.42mm

G21 ; set units to millimeters
M107
M190 S70 ; wait for bed temperature to be reached
M104 S215 ; set temperature
G28 ; home all axes
G1 Z5 F5000 ; lift nozzle

M109 S215 ; wait for temperature to be reached
G90 ; use absolute coordinates
G92 E0
M82 ; use absolute distances for extrusion
G1 F1800.000 E-1.00000
G92 E0
G1 Z0.400 F7800.000
G1 X77.561 Y79.023 F7800.000
G1 E1.00000 F1800.000
G1 X79.031 Y77.639 E1.08161 F1080.000
G1 X80.741 Y76.407 E1.16677
G1 X82.491 Y75.478 E1.24684
G1 X84.429 Y74.754 E1.33046
G1 X86.325 Y74.328 E1.40900
G1 X87.959 Y74.150 E1.47542
G1 X109.303 Y73.293 E2.33870
G1 X111.515 Y73.314 E2.42808
G1 X113.894 Y73.660 E2.52522 F1080.000
G1 X115.882 Y74.224 E2.60874
G1 X117.959 Y75.115 E2.70008
G1 X119.789 Y76.214 E2.78633
G1 X121.528 Y77.596 E2.87611
G1 X122.978 Y79.109 E2.96082
G1 X124.271 Y80.869 E3.04906
G1 X124.828 Y81.833 E3.09407
G1 X125.254 Y82.676 E3.13223
G1 X126.024 Y84.679 E3.21894
G1 X126.299 Y85.721 E3.26250
G1 X126.487 Y86.644 E3.30058
G1 X126.699 Y88.741 E3.38574
G1 X126.690 Y89.783 E3.42786
G1 X126.629 Y90.721 E3.46585
G1 X126.489 Y91.753 E3.50796
G1 X126.286 Y92.761 E3.54950
G1 X125.708 Y94.617 E3.62805
G1 X125.045 Y96.121 E3.69447
G1 X115.115 Y115.034 E4.55775
G1 X113.991 Y116.938 E4.64711
G1 X112.576 Y118.749 E4.74001
G1 X111.722 Y119.623 E4.78938
G1 X111.237 Y120.085 E4.81643
G1 X105.655 Y124.895 E5.11423
G1 X105.345 Y125.134 E5.13005
G1 X103.830 Y126.011 E5.20077
G1 X103.469 Y126.161 E5.21658
G1 X101.779 Y126.617 E5.28732
G1 X101.391 Y126.669 E5.30313
G1 X99.641 Y126.672 E5.37385
G1 X99.253 Y126.622 E5.38967
G1 X97.562 Y126.174 E5.46040
G1 X97.200 Y126.025 E5.47621
G1 X95.681 Y125.154 E5.54695
G1 X95.023 Y124.633 E5.58087
G1 X89.763 Y120.007 E5.86395
G1 X89.061 Y119.287 E5.90460
G1 X88.446 Y118.578 E5.94253
G1 X87.475 Y117.252 E6.00895
G1 X76.060 Y99.196 E6.87223
G1 X74.973 Y97.271 E6.96160
G1 X74.112 Y95.140 E7.05448
G1 X73.578 Y93.033 E7.14229
G1 X73.311 Y90.789 E7.23362
G1 X73.348 Y88.655 E7.31988
G1 X73.675 Y86.458 E7.40966
G1 X74.260 Y84.445 E7.49437
G1 X75.138 Y82.446 E7.58260
G1 X76.212 Y80.691 E7.66576
G1 X77.523 Y79.070 E7.75003
G1 F1800.000 E6.75003
G92 E0
G1 X103.072 Y98.483 F7800.000
G1 E1.00000 F1800.000
G1 X101.639 Y97.890 E1.06267 F540.000
G1 X100.273 Y97.519 E1.11986
G1 X98.831 Y97.336 E1.17862
G1 X97.377 Y97.337 E1.23737
G1 X96.586 Y97.448 E1.26963
G1 X96.416 Y97.042 E1.28742
G1 X97.646 Y96.097 E1.35009
G1 X98.650 Y95.100 E1.40728
G1 X99.529 Y93.942 E1.46603
G1 X100.256 Y92.683 E1.52480
G1 X100.555 Y91.943 E1.55705
G1 X100.991 Y91.998 E1.57484
G1 X101.195 Y93.535 E1.63751
G1 X101.556 Y94.904 E1.69470
G1 X102.119 Y96.244 E1.75346
G1 X102.847 Y97.503 E1.81222
G1 X103.338 Y98.132 E1.84447
G1 X103.108 Y98.435 E1.85984
G1 F1800.000 E0.85984
G92 E0
G1 X108.172 Y90.603 F7800.000
G1 E1.00000 F1800.000
G1 X109.093 Y92.923 E1.10089 F540.000
G1 X109.776 Y93.754 E1.14436
G1 X112.339 Y95.437 E1.26828
G1 X112.339 Y94.718 E1.29735
G1 X113.161 Y94.715 E1.33055
G1 X114.450 Y94.330 E1.38493
G1 X115.642 Y93.562 E1.44224
G1 X116.624 Y92.440 E1.50250
G1 X117.292 Y91.025 E1.56574
G1 X117.562 Y89.408 E1.63200
G1 X117.375 Y87.703 E1.70130
G1 X116.721 Y86.076 E1.77218
G1 X116.181 Y85.269 E1.81139
G1 X115.566 Y84.566 E1.84914
G1 X114.829 Y83.932 E1.88843
G1 X114.016 Y83.399 E1.92771
G1 X113.102 Y82.968 E1.96855
G1 X112.140 Y82.659 E2.00939
G1 X111.106 Y82.481 E2.05178
G1 X110.058 Y82.437 E2.09417
G1 X108.976 Y82.544 E2.13812
G1 X107.916 Y82.789 E2.18207
G1 X106.865 Y83.193 E2.22758
G1 X105.874 Y83.727 E2.27308
G1 X104.937 Y84.418 E2.32016
G1 X104.094 Y85.223 E2.36723
G1 X103.348 Y86.167 E2.41586
G1 X102.728 Y87.198 E2.46450
G1 X102.243 Y88.342 E2.51470
G1 X101.906 Y89.538 E2.56491
G1 X101.734 Y90.807 E2.61668
G1 X101.724 Y92.088 E2.66846
G1 X101.897 Y93.397 E2.72180
G1 X102.234 Y94.673 E2.77515
G1 X102.760 Y95.926 E2.83006
G1 X103.440 Y97.103 E2.88498
G1 X104.301 Y98.204 E2.94147
G1 X105.248 Y99.143 E2.99536
G1 X106.342 Y100.178 E3.05623
G1 X107.241 Y101.271 E3.11344
G1 X107.959 Y102.445 E3.16906
G1 X108.525 Y103.700 E3.22468
G1 X108.994 Y105.302 E3.29216
G1 X108.952 Y105.302 E3.29386
G1 X109.112 Y106.303 E3.33483
G1 X109.139 Y107.601 E3.38728
G1 X109.002 Y108.891 E3.43972
G1 X108.697 Y110.113 E3.49059
G1 X108.242 Y111.286 E3.54144
G1 X107.648 Y112.350 E3.59072
G1 X106.924 Y113.332 E3.63999
G1 X106.099 Y114.176 E3.68768
G1 X105.175 Y114.909 E3.73537
G1 X104.191 Y115.487 E3.78147
G1 X103.136 Y115.940 E3.82786
G1 X102.302 Y116.179 E3.86296
G1 X100.533 Y116.497 E3.93557
G1 X98.886 Y116.250 E4.00290
G1 X97.886 Y115.978 E4.04477
G1 X96.941 Y115.587 E4.08611
G1 X96.093 Y115.089 E4.12587
G1 X95.314 Y114.487 E4.16563
G1 X94.655 Y113.810 E4.20381
G1 X94.086 Y113.056 E4.24198
G1 X93.648 Y112.264 E4.27858
G1 X93.313 Y111.423 E4.31517
G1 X93.108 Y110.581 E4.35018
G1 X93.012 Y109.720 E4.38518
G1 X93.036 Y108.893 E4.41861
G1 X93.164 Y108.076 E4.45203
G1 X93.395 Y107.323 E4.48388
G1 X93.720 Y106.605 E4.51571
G1 X94.121 Y105.973 E4.54597
G1 X94.600 Y105.397 E4.57622
G1 X95.126 Y104.921 E4.60490
G1 X95.708 Y104.516 E4.63357
G1 X96.307 Y104.215 E4.66066
G1 X96.940 Y103.993 E4.68775
G1 X97.559 Y103.871 E4.71326
G1 X98.152 Y103.832 E4.73729
G1 X99.356 Y104.003 E4.78642
G1 X100.364 Y104.447 E4.83092
G1 X101.153 Y105.097 E4.87225
G1 X101.691 Y105.873 E4.91041
G1 X101.971 Y106.692 E4.94540
G1 X102.009 Y107.478 E4.97721
G1 X101.845 Y108.167 E5.00584
G1 X101.532 Y108.713 E5.03126
G1 X101.024 Y109.198 E5.05965
G1 X100.634 Y108.883 E5.07989
G1 X100.883 Y108.474 E5.09926
G1 X100.993 Y108.215 E5.11062
G1 X101.064 Y107.951 E5.12168
G1 X101.095 Y107.699 E5.13195
G1 X101.098 Y107.444 E5.14225
G1 X101.055 Y107.107 E5.15597
G1 X100.981 Y106.849 E5.16685
G1 X100.885 Y106.608 E5.17734
G1 X100.714 Y106.299 E5.19157
G1 X100.549 Y106.078 E5.20272
G1 X100.367 Y105.880 E5.21359
G1 X100.087 Y105.637 E5.22859
G1 X99.848 Y105.479 E5.24016
G1 X99.600 Y105.346 E5.25153
G1 X99.176 Y105.177 E5.26998
G1 X98.220 Y105.036 E5.30905
G1 X97.159 Y105.212 E5.35252
G1 X96.141 Y105.724 E5.39856
G1 X95.268 Y106.556 E5.44729
G1 X94.635 Y107.663 E5.49883
G1 X94.323 Y108.972 E5.55321
G1 X94.392 Y110.389 E5.61052
G1 X94.873 Y111.800 E5.67078
G1 X95.764 Y113.086 E5.73402
G1 X97.030 Y114.128 E5.80028
G1 X98.600 Y114.819 E5.86958
G1 X100.336 Y115.066 E5.94045
G1 X101.304 Y115.002 E5.97967
G1 X102.221 Y114.821 E6.01742
G1 X103.138 Y114.499 E6.05671
G1 X104.007 Y114.062 E6.09599
G1 X104.836 Y113.486 E6.13683
G1 X105.585 Y112.807 E6.17767
G1 X106.256 Y112.001 E6.22006
G1 X106.818 Y111.115 E6.26245
G1 X107.267 Y110.124 E6.30640
G1 X107.585 Y109.085 E6.35035
G1 X107.760 Y107.972 E6.39586
G1 X107.793 Y106.847 E6.44137
G1 X107.663 Y105.689 E6.48844
G1 X107.388 Y104.558 E6.53551
G1 X106.943 Y103.439 E6.58414
G1 X106.360 Y102.387 E6.63278
G1 X105.612 Y101.395 E6.68298
G1 X104.745 Y100.505 E6.73319
G1 X103.732 Y99.721 E6.78496
G1 X102.627 Y99.072 E6.83674
G1 X101.408 Y98.567 E6.89008
G1 X100.134 Y98.221 E6.94343
G1 X98.786 Y98.050 E6.99834
G1 X97.427 Y98.051 E7.05326
G1 X96.043 Y98.246 E7.10975
G1 X94.756 Y98.596 E7.16364
G1 X93.313 Y99.027 E7.22451
G1 X91.631 Y99.305 E7.29340
G1 X91.631 Y99.265 E7.29502
G1 X90.540 Y99.293 E7.33911
G1 X89.171 Y99.156 E7.39472
G1 X87.872 Y98.839 E7.44876
G1 X86.623 Y98.363 E7.50279
G1 X85.486 Y97.737 E7.55524
G1 X84.437 Y96.973 E7.60769
G1 X83.531 Y96.099 E7.65855
G1 X82.743 Y95.118 E7.70940
G1 X82.118 Y94.071 E7.75868
G1 X81.630 Y92.954 E7.80795
G1 X81.312 Y91.818 E7.85564
G1 X81.139 Y90.650 E7.90333
G1 X81.130 Y89.510 E7.94943
G1 X81.264 Y88.377 E7.99553
G1 X81.545 Y87.312 E8.04005
G1 X81.958 Y86.290 E8.08457
G1 X82.488 Y85.370 E8.12750
G1 X83.131 Y84.524 E8.17043
G1 X83.857 Y83.803 E8.21178
G1 X84.668 Y83.180 E8.25312
G1 X85.524 Y82.695 E8.29288
G1 X86.435 Y82.322 E8.33264
G1 X87.350 Y82.089 E8.37082
G1 X88.288 Y81.974 E8.40899
G1 X89.193 Y81.990 E8.44559
G1 X90.089 Y82.120 E8.48218
G1 X90.920 Y82.364 E8.51719
G1 X91.714 Y82.711 E8.55219
G1 X92.418 Y83.145 E8.58562
G1 X93.061 Y83.665 E8.61904
G1 X93.598 Y84.242 E8.65089
G1 X94.057 Y84.882 E8.68272
G1 X94.404 Y85.545 E8.71298
G1 X94.663 Y86.248 E8.74323
G1 X94.813 Y86.941 E8.77191
G1 X94.872 Y87.648 E8.80058
G1 X94.834 Y88.318 E8.82768
G1 X94.709 Y88.976 E8.85476
G1 X94.506 Y89.574 E8.88027
G1 X94.243 Y90.107 E8.90430
G1 X93.493 Y91.064 E8.95343
G1 X92.605 Y91.715 E8.99793
G1 X91.647 Y92.074 E9.03926
G1 X90.706 Y92.152 E9.07742
G1 X89.857 Y91.984 E9.11241
G1 X89.157 Y91.624 E9.14422
G1 X88.642 Y91.137 E9.17285
G1 X88.325 Y90.593 E9.19828
G1 X88.186 Y90.017 E9.22222
G1 X88.606 Y89.819 E9.24102
G1 X89.026 Y90.375 E9.26920
G1 X89.219 Y90.569 E9.28026
G1 X89.422 Y90.722 E9.29054
G1 X89.642 Y90.851 E9.30084
G1 X89.955 Y90.983 E9.31455
G1 X90.216 Y91.049 E9.32543
G1 X90.473 Y91.086 E9.33593
G1 X90.825 Y91.092 E9.35016
G1 X91.099 Y91.059 E9.36130
G1 X91.362 Y91.001 E9.37217
G1 X91.712 Y90.880 E9.38717
G1 X91.968 Y90.752 E9.39874
G1 X92.207 Y90.603 E9.41012
G1 X92.566 Y90.321 E9.42856
G1 X93.166 Y89.563 E9.46763
G1 X93.544 Y88.556 E9.51110
G1 X93.610 Y87.419 E9.55714
G1 X93.326 Y86.247 E9.60588
G1 X92.684 Y85.145 E9.65741
G1 X91.706 Y84.220 E9.71180
G1 X90.445 Y83.572 E9.76910
G1 X88.982 Y83.283 E9.82936
G1 X87.423 Y83.412 E9.89261
G1 X85.887 Y83.987 E9.95887
G1 X84.505 Y85.001 E10.02816
G1 X83.422 Y86.381 E10.09904
G1 X82.994 Y87.252 E10.13826
G1 X82.692 Y88.136 E10.17600
G1 X82.512 Y89.091 E10.21529
G1 X82.456 Y90.062 E10.25458
G1 X82.541 Y91.069 E10.29542
G1 X82.753 Y92.057 E10.33625
G1 X83.117 Y93.041 E10.37865
G1 X83.602 Y93.970 E10.42103
G1 X84.236 Y94.854 E10.46499
G1 X84.978 Y95.649 E10.50893
G1 X85.853 Y96.358 E10.55444
G1 X86.812 Y96.949 E10.59995
G1 X87.879 Y97.415 E10.64702
G1 X88.997 Y97.743 E10.69409
G1 X90.187 Y97.916 E10.74273
G1 X91.391 Y97.938 E10.79136
G1 X92.624 Y97.786 E10.84157
G1 X93.828 Y97.480 E10.89177
G1 X95.013 Y96.994 E10.94355
G1 X96.128 Y96.363 E10.99532
G1 X97.174 Y95.558 E11.04867
G1 X98.111 Y94.628 E11.10201
G1 X98.933 Y93.546 E11.15693
G1 X99.612 Y92.369 E11.21185
G1 X100.136 Y91.073 E11.26834
G1 X100.475 Y89.784 E11.32223
G1 X100.824 Y88.318 E11.38310
G1 X101.322 Y86.993 E11.44030
G1 X101.980 Y85.784 E11.49592
G1 X102.783 Y84.667 E11.55154
G1 X103.707 Y83.700 E11.60558
G1 X104.744 Y82.857 E11.65961
G1 X105.855 Y82.185 E11.71206
G1 X107.040 Y81.658 E11.76450
G1 X108.250 Y81.311 E11.81536
G1 X109.494 Y81.119 E11.86622
G1 X110.713 Y81.101 E11.91550
G1 X111.925 Y81.237 E11.96477
G1 X113.068 Y81.530 E12.01246
G1 X114.165 Y81.964 E12.06014
G1 X115.158 Y82.526 E12.10625
G1 X116.071 Y83.209 E12.15235
G1 X116.854 Y83.985 E12.19687
G1 X117.532 Y84.853 E12.24138
G1 X118.063 Y85.773 E12.28432
G1 X118.475 Y86.752 E12.32724
G1 X118.736 Y87.741 E12.36859
G1 X118.870 Y88.755 E12.40994
G1 X118.862 Y89.739 E12.44970
G1 X118.730 Y90.714 E12.48946
G1 X118.474 Y91.624 E12.52764
G1 X118.105 Y92.493 E12.56581
G1 X117.638 Y93.269 E12.60241
G1 X117.077 Y93.980 E12.63899
G1 X116.451 Y94.578 E12.67401
G1 X115.753 Y95.092 E12.70901
G1 X115.025 Y95.484 E12.74244
G1 X114.253 Y95.781 E12.77585
G1 X113.486 Y95.958 E12.80770
G1 X112.702 Y96.036 E12.83954
G1 X111.954 Y96.004 E12.86980
G1 X111.216 Y95.878 E12.90005
G1 X110.540 Y95.660 E12.92873
G1 X109.898 Y95.358 E12.95739
G1 X109.338 Y94.990 E12.98449
G1 X108.830 Y94.553 E13.01157
G1 X108.414 Y94.078 E13.03709
G1 X108.084 Y93.584 E13.06111
G1 X107.630 Y92.456 E13.11025
G1 X107.510 Y91.361 E13.15474
G1 X107.637 Y90.603 E13.18582
G1 X107.560 Y90.603 E13.18891
G1 X108.081 Y89.499 E13.23825
G1 X108.652 Y88.847 E13.27324
G1 X109.313 Y88.421 E13.30505
G1 X109.992 Y88.218 E13.33368
G1 X110.621 Y88.216 E13.35911
G1 X111.295 Y88.414 E13.38749
G1 X111.218 Y88.909 E13.40774
G1 X110.739 Y88.898 E13.42711
G1 X110.460 Y88.932 E13.43847
G1 X110.195 Y89.002 E13.44953
G1 X109.961 Y89.101 E13.45981
G1 X109.739 Y89.227 E13.47011
G1 X109.469 Y89.432 E13.48382
G1 X109.282 Y89.625 E13.49469
G1 X109.121 Y89.830 E13.50519
G1 X108.939 Y90.131 E13.51943
G1 X108.762 Y90.603 E13.53978
G1 X108.232 Y90.603 E13.56119
G1 F1800.000 E12.56119
G92 E0
G1 X89.000 Y89.155 F7800.000
G1 E1.00000 F1800.000
G1 X89.567 Y89.906 E1.03800 F378.000
G1 X89.690 Y90.029 E1.04505
G1 X89.963 Y90.212 E1.05830
G1 X90.182 Y90.304 E1.06791
G1 X90.355 Y90.347 E1.07511
G1 X90.531 Y90.372 E1.08229
G1 X90.789 Y90.377 E1.09274
G1 X91.167 Y90.313 E1.10824
G1 X91.435 Y90.220 E1.11968
G1 X91.620 Y90.128 E1.12804
G1 X91.797 Y90.018 E1.13649
G1 X92.059 Y89.812 E1.14992
G1 X92.537 Y89.208 E1.18107
G1 X92.837 Y88.407 E1.21564
G1 X92.890 Y87.484 E1.25301
G1 X92.656 Y86.516 E1.29324
G1 X92.118 Y85.593 E1.33641
G1 X91.289 Y84.809 E1.38254
G1 X90.208 Y84.253 E1.43167
G1 X88.942 Y84.003 E1.48383
G1 X87.580 Y84.115 E1.53904
G1 X86.230 Y84.621 E1.59731
G1 X85.006 Y85.519 E1.65866
G1 X84.030 Y86.763 E1.72256
G1 X83.655 Y87.526 E1.75691
G1 X83.385 Y88.318 E1.79074
G1 X83.222 Y89.178 E1.82612
G1 X83.172 Y90.052 E1.86150
G1 X83.248 Y90.963 E1.89843
G1 X83.441 Y91.857 E1.93537
G1 X83.771 Y92.750 E1.97387
G1 X84.212 Y93.595 E2.01238
G1 X84.790 Y94.400 E2.05244
G1 X85.466 Y95.126 E2.09251
G1 X86.267 Y95.774 E2.13415
G1 X87.144 Y96.314 E2.17578
G1 X88.123 Y96.743 E2.21899
G1 X89.149 Y97.043 E2.26219
G1 X90.246 Y97.203 E2.30697
G1 X91.353 Y97.223 E2.35174
G1 X92.492 Y97.083 E2.39809
G1 X93.603 Y96.800 E2.44444
G1 X94.701 Y96.351 E2.49236
G1 X95.732 Y95.766 E2.54029
G1 X96.703 Y95.020 E2.58979
G1 X97.573 Y94.157 E2.63929
G1 X98.337 Y93.150 E2.69036
G1 X98.969 Y92.056 E2.74144
G1 X99.457 Y90.847 E2.79410
G1 X99.783 Y89.610 E2.84582
G1 X100.140 Y88.109 E2.90816
G1 X100.671 Y86.696 E2.96918
G1 X101.374 Y85.404 E3.02862
G1 X102.233 Y84.210 E3.08806
G1 X103.221 Y83.174 E3.14592
G1 X104.332 Y82.271 E3.20377
G1 X105.524 Y81.551 E3.26005
G1 X106.796 Y80.985 E3.31631
G1 X108.097 Y80.612 E3.37100
G1 X109.434 Y80.406 E3.42569
G1 X110.748 Y80.387 E3.47879
G1 X112.054 Y80.533 E3.53189
G1 X113.289 Y80.849 E3.58342
G1 X114.474 Y81.318 E3.63493
G1 X115.549 Y81.927 E3.68487
G1 X116.539 Y82.667 E3.73481
G1 X117.389 Y83.510 E3.78316
G1 X118.125 Y84.452 E3.83151
G1 X118.704 Y85.454 E3.87829
G1 X119.152 Y86.521 E3.92506
G1 X119.438 Y87.603 E3.97025
G1 X119.585 Y88.711 E4.01544
G1 X119.576 Y89.790 E4.05906
G1 X119.431 Y90.860 E4.10267
G1 X119.149 Y91.861 E4.14470
G1 X118.743 Y92.818 E4.18673
G1 X118.227 Y93.676 E4.22718
G1 X117.607 Y94.462 E4.26763
G1 X116.911 Y95.126 E4.30651
G1 X116.136 Y95.696 E4.34538
G1 X115.324 Y96.135 E4.38268
G1 X114.463 Y96.466 E4.41997
G1 X113.601 Y96.664 E4.45570
G1 X112.722 Y96.751 E4.49142
G1 X111.878 Y96.716 E4.52556
G1 X111.045 Y96.573 E4.55970
G1 X110.278 Y96.326 E4.59228
G1 X109.549 Y95.983 E4.62485
G1 X108.907 Y95.562 E4.65585
G1 X108.326 Y95.062 E4.68685
G1 X107.846 Y94.513 E4.71628
G1 X107.449 Y93.919 E4.74518
G1 X106.931 Y92.631 E4.80128
G1 X106.790 Y91.341 E4.85372
G1 X106.990 Y90.137 E4.90304
G1 X107.478 Y89.104 E4.94924
G1 X108.180 Y88.301 E4.99233
G1 X109.012 Y87.765 E5.03231
G1 X109.887 Y87.505 E5.06919
G1 X110.723 Y87.501 E5.10299
G1 X111.452 Y87.716 E5.13370
G1 X112.036 Y88.099 E5.16194
G1 X112.237 Y88.311 E5.17374
G1 X112.413 Y88.560 E5.18607
G1 X112.531 Y88.802 E5.19694
G1 X112.611 Y89.057 E5.20774
G1 X112.642 Y89.287 E5.21711
G1 X112.636 Y89.524 E5.22670
G1 X112.594 Y89.725 E5.23500
G1 X112.488 Y89.963 E5.24555
G1 X112.279 Y90.192 E5.25808
G1 X112.133 Y90.268 E5.26471
G1 X111.855 Y90.311 E5.27609
G1 X111.683 Y90.030 E5.28941
G1 X111.571 Y89.902 E5.29627
G1 X111.440 Y89.794 E5.30314
G1 X111.286 Y89.709 E5.31025
G1 X111.124 Y89.650 E5.31723
G1 X110.956 Y89.617 E5.32414
G1 X110.774 Y89.613 E5.33150
G1 X110.427 Y89.679 E5.34577
G1 X110.133 Y89.825 E5.35902
G1 X109.944 Y89.969 E5.36863
G1 X109.710 Y90.236 E5.38299
G1 X109.577 Y90.458 E5.39344
G1 X109.443 Y90.817 E5.40894
G1 X109.347 Y91.317 E5.42950
G1 X109.224 Y91.317 E5.43448
G1 X109.716 Y92.556 E5.48836
G1 X110.259 Y93.217 E5.52293
G1 X111.625 Y94.114 E5.58898
G1 X111.625 Y94.006 E5.59332
